public/images/icn-next-actions.svg

<svg width="24" height="24" viewBox="0 0 24 24" fill="none" xmlns="http://www.w3.org/2000/svg">
<g id="icn-next-actions">
<g id="Vector">
<path d="M14.5474 22.1032L12.8205 23.1197C12.3718 23.3848 11.8109 23.3848 11.3621 23.1197L9.63523 22.1032C9.2205 21.8585 8.96894 21.4166 8.96894 20.9372V16.229H15.2137V20.9372C15.2137 21.4166 14.9587 21.8619 14.5474 22.1032Z" fill="white"/>
<path d="M12.093 24.0001C11.7225 24.0001 11.3485 23.9015 11.0188 23.7078L9.29188 22.6913C8.67319 22.3276 8.28905 21.6545 8.28905 20.9372V16.229C8.28905 15.8551 8.595 15.5491 8.96894 15.5491H15.2171C15.591 15.5491 15.897 15.8551 15.897 16.229V20.9372C15.897 21.6545 15.5128 22.3276 14.8942 22.6913L13.1672 23.7078C12.8341 23.9015 12.4636 24.0001 12.093 24.0001ZM9.64883 16.9089V20.9372C9.64883 21.1752 9.7746 21.3996 9.98197 21.5185L11.7089 22.535C11.9468 22.6743 12.2392 22.6743 12.4772 22.535L14.2041 21.5185C14.408 21.3996 14.5372 21.1752 14.5372 20.9372V16.9089H9.64883Z" fill="#26817C"/>
<path d="M19.5072 8.09078C19.5072 3.71911 15.7202 0.227888 11.2466 0.724205C7.83013 1.10494 5.07659 3.87888 4.71965 7.29531C4.45449 9.82449 5.46752 12.1259 7.18764 13.6421C8.34004 14.6585 8.96894 16.1372 8.96894 17.6738H15.2137C15.2137 16.1474 15.8324 14.6619 16.9814 13.6557C18.5281 12.2993 19.5038 10.3106 19.5038 8.09418L19.5072 8.09078Z" fill="#E0F4F3"/>
<path fill-rule="evenodd" clip-rule="evenodd" d="M15.2171 18.3537H8.96894C8.595 18.3537 8.28905 18.0477 8.28905 17.6738C8.28905 16.3038 7.72475 15.0222 6.73891 14.152C4.75024 12.3979 3.7678 9.87208 4.04656 7.22392C4.43749 3.48115 7.43239 0.462449 11.1718 0.0477179C13.4766 -0.20384 15.778 0.527038 17.4913 2.06018C19.2046 3.59333 20.1871 5.79276 20.1871 8.09078C20.1871 10.3888 19.1842 12.629 17.4335 14.1656C16.4579 15.0222 15.897 16.3004 15.897 17.6738C15.897 18.0477 15.591 18.3537 15.2171 18.3537ZM12.6588 16.9939H14.5746C14.7378 15.4913 15.4313 14.1146 16.5361 13.1457C17.991 11.8675 18.8273 10.0251 18.8273 8.09418C18.8273 6.1633 18.008 4.3514 16.5837 3.07661C15.1389 1.78143 13.2692 1.18653 11.3213 1.40409C8.21426 1.74404 5.72248 4.25282 5.39613 7.3667C5.16497 9.57293 5.98424 11.6738 7.63636 13.1321C8.74797 14.1112 9.44826 15.4913 9.61143 16.9939H11.2677C11.3209 16.6821 11.4293 16.3159 11.5512 15.904L11.5557 15.8891C11.9364 14.6109 12.4565 12.8602 11.4979 12.1191C11.0322 11.7587 10.801 11.2658 10.8418 10.7321C10.9098 9.86866 11.7358 8.99501 12.5993 8.30832H10.0871C9.71318 8.30832 9.40723 8.00237 9.40723 7.62843C9.40723 7.2545 9.71318 6.94855 10.0871 6.94855H14.8531C15.1625 6.94855 15.4344 7.15931 15.5126 7.45846C15.5908 7.75761 15.4548 8.07376 15.1829 8.22334C13.7823 8.99501 12.2492 10.2324 12.2016 10.8409L12.2015 10.8459C12.2012 10.8837 12.2008 10.944 12.3341 11.0449C14.0271 12.357 13.3268 14.7163 12.8611 16.28C12.8549 16.3009 12.8487 16.3218 12.8425 16.3427C12.7728 16.5779 12.7057 16.8044 12.6588 16.9939Z" fill="#26817C"/>
<path d="M8.9689 21.6341C8.66975 21.6341 8.3978 21.437 8.31281 21.1344C8.21423 20.7741 8.42499 20.3967 8.78873 20.2981L15.0369 18.578C15.3972 18.476 15.7746 18.6902 15.8732 19.054C15.9717 19.4143 15.761 19.7916 15.3972 19.8902L9.14907 21.6103C9.08788 21.6273 9.02669 21.6341 8.9689 21.6341Z" fill="#26817C"/>
</g>
</g>
</svg>

<svg xmlns="http://www.w3.org/2000/svg" width="24" height="24" fill="none"><path fill="#fff" d="M14.547 22.103 12.82 23.12a1.44 1.44 0 0 1-1.458 0l-1.727-1.017a1.35 1.35 0 0 1-.666-1.166V16.23h6.245v4.708c0 .48-.255.925-.667 1.166"/><path fill="#26817C" d="M12.093 24c-.37 0-.745-.099-1.074-.292L9.292 22.69a2.04 2.04 0 0 1-1.003-1.754V16.23c0-.374.306-.68.68-.68h6.248c.374 0 .68.306.68.68v4.708c0 .717-.384 1.39-1.003 1.754l-1.727 1.017a2.14 2.14 0 0 1-1.074.292M9.649 16.91v4.028a.67.67 0 0 0 .333.581l1.727 1.017c.238.14.53.14.768 0l1.727-1.017a.68.68 0 0 0 .333-.58v-4.03z"/><path fill="#E0F4F3" d="M19.507 8.09a7.416 7.416 0 0 0-8.26-7.366c-3.417.38-6.17 3.155-6.527 6.571a7.38 7.38 0 0 0 2.468 6.347c1.152 1.017 1.78 2.495 1.78 4.032h6.246c0-1.527.618-3.012 1.767-4.018a7.38 7.38 0 0 0 2.523-5.562z"/><path fill="#26817C" fill-rule="evenodd" d="M15.217 18.354H8.97a.68.68 0 0 1-.68-.68c0-1.37-.564-2.652-1.55-3.522-1.989-1.754-2.971-4.28-2.692-6.928C4.437 3.48 7.432.462 11.172.048a8.15 8.15 0 0 1 6.32 2.012 8.1 8.1 0 0 1 2.695 6.03 8.13 8.13 0 0 1-2.754 6.076c-.975.856-1.536 2.134-1.536 3.508 0 .374-.306.68-.68.68m-2.558-1.36h1.916c.163-1.503.856-2.88 1.961-3.848a6.73 6.73 0 0 0 2.291-5.052c0-1.93-.819-3.743-2.243-5.017-1.445-1.296-3.315-1.89-5.263-1.673-3.107.34-5.599 2.849-5.925 5.963a6.67 6.67 0 0 0 2.24 5.765 6 6 0 0 1 1.975 3.862h1.657c.053-.312.161-.678.283-1.09l.005-.015c.38-1.278.9-3.029-.058-3.77-.466-.36-.697-.853-.656-1.387.068-.863.894-1.737 1.757-2.424h-2.512a.68.68 0 0 1-.68-.68c0-.373.306-.68.68-.68h4.766a.679.679 0 0 1 .33 1.275c-1.4.772-2.934 2.01-2.981 2.618v.005c0 .038-.001.098.132.199 1.693 1.312.993 3.671.527 5.235l-.019.063c-.07.235-.136.461-.183.65" clip-rule="evenodd"/><path fill="#26817C" d="M8.969 21.634a.681.681 0 0 1-.18-1.336l6.248-1.72a.68.68 0 0 1 .36 1.312L9.15 21.61a.7.7 0 0 1-.18.024"/></svg>
